tooling/create-tauri-app/src/templates/react/react-ts/src/wordmark.svg

<svg width="475" height="117" viewBox="0 0 475 117" fill="none" xmlns="http://www.w3.org/2000/svg">
<path d="M37.7294 115C36.6428 115 35.6648 114.62 34.7954 113.859C34.0348 112.99 33.6544 112.012 33.6544 110.925V26.491H4.64043C3.55376 26.491 2.57576 26.1107 1.70643 25.35C0.945763 24.4807 0.56543 23.5027 0.56543 22.416V4.97503C0.56543 3.77969 0.945763 2.80169 1.70643 2.04103C2.57576 1.28036 3.55376 0.900024 4.64043 0.900024H92.3344C93.5298 0.900024 94.5078 1.28036 95.2684 2.04103C96.0291 2.80169 96.4094 3.77969 96.4094 4.97503V22.416C96.4094 23.6114 96.0291 24.5894 95.2684 25.35C94.5078 26.1107 93.5298 26.491 92.3344 26.491H63.3204V110.925C63.3204 112.012 62.9401 112.99 62.1794 113.859C61.4188 114.62 60.4408 115 59.2454 115H37.7294Z" fill="#F7F7F7"/>
<path d="M93.0832 115C92.2139 115 91.3989 114.674 90.6382 114.022C89.9862 113.261 89.6602 112.446 89.6602 111.577C89.6602 110.925 89.7145 110.436 89.8232 110.11L128.128 5.46402C128.454 4.16003 129.161 3.07336 130.247 2.20403C131.334 1.33469 132.747 0.900024 134.485 0.900024H158.609C160.348 0.900024 161.761 1.33469 162.847 2.20403C163.934 3.07336 164.64 4.16003 164.966 5.46402L203.108 110.11L203.434 111.577C203.434 112.446 203.054 113.261 202.293 114.022C201.641 114.674 200.826 115 199.848 115H179.799C177.191 115 175.453 113.859 174.583 111.577L168.226 94.951H124.705L118.511 111.577C117.642 113.859 115.849 115 113.132 115H93.0832ZM161.706 71.479L146.547 28.447L131.388 71.479H161.706Z" fill="#F7F7F7"/>
<path d="M261.657 116.63C246.335 116.63 234.327 112.881 225.634 105.383C217.049 97.885 212.757 86.5837 212.757 71.479V4.97503C212.757 3.77969 213.137 2.80169 213.898 2.04103C214.767 1.28036 215.745 0.900024 216.832 0.900024H237.859C239.054 0.900024 240.032 1.28036 240.793 2.04103C241.662 2.80169 242.097 3.77969 242.097 4.97503V71.316C242.097 78.3794 243.727 83.704 246.987 87.29C250.356 90.7674 255.191 92.506 261.494 92.506C267.688 92.506 272.469 90.713 275.838 87.127C279.207 83.541 280.891 78.2707 280.891 71.316V4.97503C280.891 3.77969 281.271 2.80169 282.032 2.04103C282.901 1.28036 283.879 0.900024 284.966 0.900024H306.156C307.351 0.900024 308.329 1.28036 309.09 2.04103C309.851 2.80169 310.231 3.77969 310.231 4.97503V71.479C310.231 86.5837 305.884 97.885 297.191 105.383C288.606 112.881 276.762 116.63 261.657 116.63Z" fill="#F7F7F7"/>
<path d="M335.921 115C334.835 115 333.857 114.62 332.987 113.859C332.227 112.99 331.846 112.012 331.846 110.925V4.97503C331.846 3.77969 332.227 2.80169 332.987 2.04103C333.857 1.28036 334.835 0.900024 335.921 0.900024H380.257C394.493 0.900024 405.577 4.16002 413.509 10.68C421.551 17.0914 425.571 26.2194 425.571 38.064C425.571 45.6707 423.778 52.1364 420.192 57.461C416.606 62.7857 411.662 66.8607 405.359 69.686L427.69 109.784C428.016 110.436 428.179 111.034 428.179 111.577C428.179 112.446 427.799 113.261 427.038 114.022C426.386 114.674 425.626 115 424.756 115H403.077C399.926 115 397.698 113.533 396.394 110.599L377.812 74.739H361.186V110.925C361.186 112.12 360.752 113.098 359.882 113.859C359.122 114.62 358.144 115 356.948 115H335.921ZM379.931 51.593C384.93 51.593 388.733 50.3977 391.341 48.007C393.949 45.5077 395.253 42.0847 395.253 37.738C395.253 33.3914 393.949 29.9684 391.341 27.469C388.842 24.861 385.039 23.557 379.931 23.557H361.186V51.593H379.931Z" fill="#F7F7F7"/>
<path d="M448.621 115C447.534 115 446.556 114.62 445.687 113.859C444.926 112.99 444.546 112.012 444.546 110.925V4.97503C444.546 3.77969 444.926 2.80169 445.687 2.04103C446.556 1.28036 447.534 0.900024 448.621 0.900024H470.463C471.658 0.900024 472.636 1.28036 473.397 2.04103C474.266 2.80169 474.701 3.77969 474.701 4.97503V110.925C474.701 112.12 474.266 113.098 473.397 113.859C472.636 114.62 471.658 115 470.463 115H448.621Z" fill="#F7F7F7"/>
</svg>

<svg width="475" height="117" fill="none" xmlns="http://www.w3.org/2000/svg"><path d="M37.7 115c-1 0-2-.4-2.9-1.1a4.3 4.3 0 01-1.1-3V26.5h-29c-1.1 0-2.1-.4-3-1.1a4.3 4.3 0 01-1.1-3V5a4 4 0 011.1-3c.9-.7 1.9-1.1 3-1.1h87.6a4 4 0 013 1.1 4 4 0 011.1 3v17.4a4 4 0 01-1.1 3 4 4 0 01-3 1h-29V111c0 1.1-.4 2-1.1 3a4 4 0 01-3 1.1H37.7zM93 115c-.8 0-1.6-.3-2.4-1-.6-.7-1-1.6-1-2.4l.2-1.5L128.1 5.5a6 6 0 012.1-3.3c1.1-.9 2.5-1.3 4.3-1.3h24.1c1.7 0 3.2.4 4.2 1.3a6 6 0 012.2 3.3L203 110l.3 1.5c0 .8-.3 1.7-1.1 2.4-.7.7-1.5 1-2.5 1h-20c-2.6 0-4.3-1.1-5.2-3.4L168.2 95h-43.5l-6.2 16.6c-.9 2.3-2.7 3.4-5.4 3.4h-20zm68.7-43.5l-15.2-43-15.1 43h30.3zM261.7 116.6a53.4 53.4 0 01-36-11.2c-8.7-7.5-13-18.8-13-34V5a4 4 0 011.2-3c.9-.7 1.8-1.1 3-1.1h21a4 4 0 012.9 1.1c.9.8 1.3 1.8 1.3 3v66.3c0 7 1.6 12.4 4.9 16 3.4 3.5 8.2 5.2 14.5 5.2 6.2 0 11-1.8 14.3-5.4 3.4-3.6 5-8.8 5-15.8V5a4 4 0 011.2-3c.9-.7 1.9-1.1 3-1.1h21.2A4 4 0 01309 2a4 4 0 011.1 3v66.5c0 15-4.3 26.4-13 33.9a52.2 52.2 0 01-35.5 11.2zM336 115c-1.2 0-2.1-.4-3-1.1a4.3 4.3 0 01-1.2-3V5A4 4 0 01333 2c.9-.7 1.8-1.1 3-1.1h44.3a51 51 0 0133.2 9.8 33 33 0 0112 27.4 34 34 0 01-5.3 19.4 34.4 34.4 0 01-14.8 12.2l22.3 40c.3.7.5 1.3.5 1.9 0 .8-.4 1.7-1.2 2.4-.6.7-1.4 1-2.2 1H403a6.8 6.8 0 01-6.7-4.4l-18.6-35.9h-16.6V111c0 1.2-.4 2.2-1.3 3a4 4 0 01-3 1.1h-21zm44-63.4c5 0 8.7-1.2 11.3-3.6 2.6-2.5 4-6 4-10.3 0-4.3-1.4-7.7-4-10.2-2.5-2.6-6.3-4-11.4-4h-18.7v28h18.7zM448.6 115c-1 0-2-.4-3-1.1a4.3 4.3 0 01-1-3V5a4 4 0 011-2.9c1-.7 2-1.1 3-1.1h21.9a4 4 0 012.9 1.1c.9.8 1.3 1.8 1.3 3v106c0 1.1-.4 2.1-1.3 2.9a4 4 0 01-3 1.1h-21.8z" fill="#F7F7F7"/></svg>
